X:80
T: Der heimkehrende Braeutigam
N: Q1102H
O: Mitteleuropa, Oesterreich, Burgenland
N: Melodievergleich zu Q0102F, anderes Lied.
R: Totenwacht - Lied
M: 3/4
L: 1/4
K: G
d | B2c | d2e | ed
d | d2c | edc | cB
d | B2c | d2e | ed
d | d2c | edc | cB

